X:1
T:Title
%%score { ( 1 3 6 ) | ( 2 4 5 ) }
L:1/8
Q:1/4=105
M:6/8
K:D
V:1 bass nm="Piano, Garritan: ARIA Player" snm="Pno."
V:3 bass 
V:6 bass 
V:2 bass 
V:4 bass 
V:5 bass 
V:1
 D,3 z2 D, | D,3 z3 | D,3 z2 D, | D,3 z3 | B,.B,.B, .B,.B,.B, | .B,.B,.B, .B,.B,C/D/ | %6
 B,.B,.B, .B,.B,.B, | .B,.B,.B, .B,.B,C/D/ | B,.B,.B, .B,.B,.B, | .B,.B,.B, .B,.B,C/D/ | %10
 B,.B,.B, .B,.B,.B, | .B,.B,.B,[K:treble] C/D/B,C/D/ | [AB]BB [AB]BB | BBB [EB]BB | [GB]BB [GB]BB | %15
 BBB [CB]BB | [AB]BB [AB]BB | BBB [EB]BB | [GB]BB [GB]BB | [AB][AB][AB] [AB][AB][Dd]/[Cc]/ | %20
 .[Dd]2 [Dd]/[Cc]/ .[Dd]2 [Cc]/[Dd]/ | .[Ee].[Dd][Cc] .[B,B]2 [B,B]/[A,A]/ | %22
 .[B,B]2 [B,B]/[A,A]/ .[B,B]2 [A,A]/[B,B]/ | z3 .[B,B]3 | [Dd][Dd][Cc] [Dd]2 [Cc]/d/ | %25
 [Ee][Dd][Cc] [B,B]2 .B | B2 .B B2 .A | cdA [FB]3 | .ff/f/.f .e[Be]/e/.[Be] | %29
 .[Bd]d/d/.d .c[Bc]/c/.[Bc] | .[Bf]f/f/.f .e[Be]/e/.[Be] | .[Bd]d/d/.d .c[Bc]/c/[Bc]/c/ | %32
 .[Bf]f/f/.f .e[Be]/e/.[Be] | .[Bd]d/d/.d .c[Bc]/c/.c | .ff/f/.f .ff/f/.f | .f3 .ff/f/.f | %36
 [A,C].DG,, C .[B,D]2 | E,[D,B,E].C [C,A,C].DB, | [A,C].DG,, C .[B,D]2 | E,[D,B,E].C [C,A,C].DB, | %40
 [A,C].DG,, C .B,2 | E,[D,B,E].C [C,A,C].DB, | [B,F]B,[B,F] B,[B,F]B, | [B,G]B,G [B,B]B,[B,B] | %44
 F>F.B, F>F.B, | [B,F]>F.B, F2 B, | F>F.B, F>F.B, | [B,F]>F.B, [B,F]2 [F,B,] | B3 c3 | d6 | c6 | %51
 A3 c3 | B3 c3 | d6 | c6 | f3 e3 | [FB]3 [Ec]3 | [Bd]6 | z6[K:bass] | A3[K:treble] [Ac]3 | %60
 [FB]3 [Ac]3 | d6 | e6 | z6 | .[fb]2 [fb] z .[fb]2 | .[fb]2 [fb] z .[fb]2 | .[fb]2 [fb] z .[fb]2 | %67
 .[fb]2 [fb] z .[fb]2 | .[fb]2 [fb] .[fb]2 [fb] | .[fb]2 [fb] .[fb]2 [fb] | %70
 [fb].B.[fb] [fb].B.[fb] | [fb].B.[fb] .[fb][B,B][Cc] | .[Dd]6 | .[Ff]6 | .[Ee]6 | .[B,B]6 | %76
 [Dd]3 .[Dd]F,.[Ee] | [Ff]3 .[Ff]A,.[Aa] | .[Bb]6 | [Bb]3 B,B[Cc] | [Dd]2 [Cc]- [Cc] [B,B]2 | %81
 [A,A]2 [G,G]- [G,G] [F,F]2 | .[Ee]6 | [Ee]3 z3 | [dd']2 [dd']/[cc']/ [dd']2 [cc']/[dd']/ | %85
 [ee'][dd'][cc'] [Bb]2 [Bb]/[Aa]/ | [Bb]2 [Bb]/[Aa]/ [Bb]2 [Aa]/[Bb]/ | %87
 [cc'][dd'][Aa] [Bb]2 [dd']/[cc']/ | z .[dd']2 .[dd']3 | z z/4 e'3/4 z .[Bb]3 | z .[Bb]2 z .[Bb]2 | %91
 [cc'][dd'][Aa] [Bb]>[Ff][Bb] | F>F.B, F>F.B, | [B,F]>F.B, F2 B, | F>F.B, F>F.B, | %95
 [B,F]>FB,- B,.[B,F].[B,F] | z6 | d6 | c6 | f6 | B,3 C3 | D3 F3 |[M:9/8] [dg]8- [dg]- | %103
 [dg]8- [dg] |[M:6/8] [E^GBe]6 |[M:9/8] [B,E^G]8- [B,EG] | [^GBe^g]6- [GBeg]3/2 z/ z |] %107
V:2
 z6 | z6 | z6 | z6 | .B,,3 .G,,3 | .A,,3 .E,,3 | .B,,3 .G,,3 | .A,,3 .E,,3 | %8
 .[B,,,B,,]3 .[G,,,G,,]3 | .[A,,,A,,]3 .[E,,,E,,]3 | .[B,,,B,,]3 .[G,,,G,,]3 | %11
 .[A,,,A,,]3 [A,,,A,,]3 | B,,AA B,,AA | [E,,E]EE E,,EE | G,,GG G,,GG | %15
 [E,A,]-[E,-A,-C][E,-A,-C] [C,,E,-A,-][E,-A,-C][E,A,C] | B,,AA B,,AA | [E,,E]EE E,,EE | %18
 G,,GG G,,GG | [E,A,]6 | [B,,F,B,]B,,B,, [G,,D,G,]G,,G,, | [A,,E,A,]A,,A,, [E,,B,,E,]E,,E,, | %22
 [G,,D,G,]G,,G,, [E,,B,,E,]E,,E,, | [F,,F,][F,,F,][F,,F,] .[B,,,B,,]2 [B,,,B,,] | %24
 B,,B,,/B,,/B,, G,,G,,/.G,,D/ | A,,A,,/A,,/A,, E,,E,,/.E,,A/ | G,,G,,/.G,,A/ E,,E,,/.E,,B/ | %27
 F,,F,,/F,,/F,, B,,>B,,B,, | .BB/B/.B .BB,/B/.C | z B/B/.B .BD/B/.E | z B/B/.B .BF/B/.A | %31
 z B/B/.B .BD/B/C/B/ | z B/B/.B .BB,/B/.C | z B/B/.B .BF/B/.[AB] | B3- B.A.c | z f/f/.f B,,3 | %36
 [E,,,E,,].B,G,,, A, .[B,,,B,,]2 | E,,D,,.A, C,,.B,[A,,,A,,] | [E,,,E,,].B,G,,, A, .[B,,,B,,]2 | %39
 E,,D,,.A, C,,.B,[A,,,A,,] | [E,,,E,,].B,G,,, A, .[B,,,B,,]2 | E,,D,,.A, C,,.B,[A,,,A,,] | %42
 .[E,,,E,,]2 [G,,,G,,] z .[B,,,B,,]2 | [E,,E,][D,,D,]B, .[C,,C,]2 [A,,,A,,] | B,>B,.F, B,>B,.F, | %45
 z z/ B,/.F, B,2 F, | B,>B,.F, B,>B,.F, | z z/ B,/.F, [B,,,F,,B,,]2 [B,,,F,,B,,] | F3 A3 | B6 | %50
 B6 | F3 A3 | F3 A3 | B6 | A6 | d3 c3 | z6 | F6 | [F,,F,]3 z3 | F3 [F,,F,]3 | z6 | B6 | %62
 [F,,F,]3 F,,3- | F,,3 [F,,F,]3 | B,,B,,B,, G,,G,,G,, | A,,A,,A,, E,,E,,E,, | B,,B,,B,, G,,G,,G,, | %67
 A,,A,,A,, E,,E,,E,, | B,,B,,B,, G,,G,,G,, | A,,A,,A,, E,,E,,E,, | B,,B,,B,, G,,G,,G,, | %71
 A,,A,,A,, E,,E,,E,, | [B,,D,F,]3 [B,,D,][B,,D,F,][B,,D,F,] | [D,F,A,]3 [D,F,][D,F,A,][D,F,A,] | %74
 [C,E,A,]3 [C,E,][C,E,A,][C,E,A,] | [B,,E,^G,]3 B,,[^G,,E,][B,,E,G,] | %76
 [B,,D,F,]3 [B,,D,F,][B,,D,][B,,D,F,] | [D,F,A,]3 [D,F,A,][D,F,][D,F,A,] | %78
 [D,G,B,]3 [D,G,][D,G,B,][D,G,B,] | [E,G,B,]3 [E,G,][B,,E,B,]E,, | %80
 .[B,,,B,,]2 [B,,,B,,] z .[B,,,B,,]2 | .[D,,D,]2 [D,,D,] z .[D,,D,]2 | %82
 [G,,G,]G,,G,, G,,[G,,G,][G,,G,] | .[A,,,A,,]3 [A,,E,A,]2 [A,,E,A,] | %84
 [B,,F,B,]2 [B,,F,B,] [G,,D,G,]2 [G,,D,G,] | [A,,E,A,]2 [A,,E,A,] [E,,B,,E,]2 [E,,B,,E,] | %86
 [G,,D,G,]2 [G,,D,G,] [E,,B,,E,]2 [E,,B,,E,] | [F,,C,F,][F,,C,F,][F,,C,F,] [B,,F,B,]2 [B,,F,B,] | %88
 [B,,F,B,][B,,F,B,]/[B,,F,]/[B,,F,B,] [G,,D,G,][G,,D,]/[G,,D,]/[G,,D,G,] | %89
 [A,,E,A,][A,,E,A,]/[A,,E,]/[A,,E,A,] [E,,B,,E,][E,,B,,]/[E,,B,,]/[E,,B,,E,] | %90
 [G,,D,G,][G,,D,G,]/[G,,D,]/[G,,D,G,] [E,,B,,E,][E,,B,,E,]/[E,,B,,]/[E,,B,,E,] | %91
 [F,,C,F,][F,,C,F,][F,,C,F,] [B,,F,B,]>[B,,F,B,][B,,F,B,] | B,>B,.F, B,>B,.F, | %93
 z z/ B,/.F, B,2 F, | B,>B,.F, B,>B,.F, | z z/ B,/F,- F,.[B,,,F,,B,,].[B,,,F,,B,,] | z3 c3 | z6 | %98
 A6 | F6 | B,,6- | B,,6 |[M:9/8] [G,,G,]8- [G,,G,]- | [G,,G,]8- [G,,G,] |[M:6/8] [E,,E,]6 | %105
[M:9/8] [E,,E,]8- [E,,E,] | [E,,,E,,]6- [E,,,E,,]3/2 z/ z |] %107
V:3
 x6 | x6 | x6 | x6 | x6 | x6 | x6 | x6 | x6 | x6 | x6 | x3[K:treble] x3 | B,6 | x6 | x6 | x6 | %16
 B,6 | x6 | x6 | x6 | x6 | x6 | x6 | .[Cc].[Dd].[A,A] z [B,,,B,,][Dd]/[Cc]/ | x6 | x6 | D3 E3 | %27
 E3 z3 | x6 | x6 | x6 | x6 | x6 | x6 | x6 | B6 | x6 | x6 | x6 | x6 | x6 | x6 | x6 | x6 | x6 | x6 | %46
 x6 | x6 | x6 | x6 | x6 | x6 | x6 | x6 | x6 | x6 | x6 | z3 B,3 | [EBc]6[K:bass] | x3[K:treble] x3 | %60
 x6 | z3 B,3 | [Ac]6- | [A-c-d]3 [Ace]3 | x6 | x6 | x6 | x6 | x6 | x6 | x6 | x6 | z3 F,[Dd][Ee] | %73
 z3 A,[Ff][Aa] | z3 A,[Dd][Cc] | z3 [E,^G,][B,B][Cc] | x6 | x6 | z3 B,[Aa][cc'] | x6 | %80
 z .[B,,,B,,]2 .[B,,,B,,]2 [B,,,B,,] | z .[D,,D,]2 .[D,,D,]2 [D,,D,] | z G,G, G,[Dd][Ff] | %83
 z2 [A,,,A,,] [Aa]2 [dd']/[cc']/ | x6 | x6 | x6 | x6 | .[dd']>B,[cc'] z G,/G,/[cc']/[dd']/ | %89
 .[ee']3/2 z/4 d'/4c' z E,/E,/[Bb]/[Aa]/ | .[Bb]>G,[Bb]/[Aa]/ .[Bb]>E,[Aa]/[Bb]/ | x6 | x6 | x6 | %94
 x6 | x6 | x6 | x6 | x6 | x6 | x6 | x6 |[M:9/8] B6 A3 | G3 F3 E3 |[M:6/8] x6 |[M:9/8] x9 | x9 |] %107
V:4
 x6 | x6 | x6 | x6 | x6 | x6 | x6 | x6 | x6 | x6 | x6 | x6 | x6 | [B,,G,]6- | [B,,G,]6 | %15
 .[C,,C]3 z3 | x6 | [B,,G,]6- | [B,,G,]6 | A,,A,,A,, A,,A,,B,, | x6 | x6 | x6 | x6 | z3 z2 G,, | %25
 z3 z2 E,, | z2 G,, z2 E,, | x6 | x6 | .D6 | .F6 | .E6 | .B,6 | .D6 | x6 | A,,3 z3 | x6 | x6 | x6 | %39
 x6 | x6 | x6 | x6 | x6 | x6 | [B,,,F,,B,,]6 | x6 | [B,,,F,,B,,]3 z3 | x6 | x6 | x6 | x6 | x6 | %53
 x6 | x6 | x6 | z3 [B,,B,]3- | [B,,B,]3 z3 | z3 F,,3- | F,,3 z3 | z3 [B,,B,]3- | [B,,B,]3 z3 | x6 | %63
 x6 | x6 | x6 | x6 | x6 | x6 | x6 | x6 | x6 | x6 | x6 | x6 | x6 | x6 | x6 | x6 | x6 | x6 | x6 | %82
 x6 | x6 | x6 | x6 | x6 | x6 | x6 | x6 | x6 | x6 | x6 | [B,,,F,,B,,]6 | x6 | .[B,,,F,,B,,]6 | B6- | %97
 B6 | x6 | x6 | x6 | x6 |[M:9/8] x9 | x9 |[M:6/8] x6 |[M:9/8] x9 | x9 |] %107
V:5
 x6 | x6 | x6 | x6 | x6 | x6 | x6 | x6 | x6 | x6 | x6 | x6 | x6 | x6 | x6 | x6 | x6 | x6 | x6 | %19
 x6 | x6 | x6 | x6 | x6 | x6 | x6 | x6 | x6 | x6 | x6 | x6 | x6 | x6 | x6 | x6 | x6 | x6 | x6 | %38
 x6 | x6 | x6 | x6 | x6 | x6 | x6 | x6 | x6 | x6 | x6 | x6 | x6 | x6 | x6 | x6 | x6 | x6 | %56
 [B,,B,]3 z3 | z3 B,,3 | x6 | x6 | [B,,B,]3 z3 | z3 B,,3 | x6 | x6 | x6 | x6 | x6 | x6 | x6 | x6 | %70
 x6 | x6 | x6 | x6 | x6 | x6 | x6 | x6 | x6 | x6 | x6 | x6 | x6 | x6 | x6 | x6 | x6 | x6 | x6 | %89
 x6 | x6 | x6 | x6 | x6 | x6 | x6 | x6 | x6 | x6 | x6 | x6 | x6 |[M:9/8] x9 | x9 |[M:6/8] x6 | %105
[M:9/8] x9 | x9 |] %107
V:6
 x6 | x6 | x6 | x6 | x6 | x6 | x6 | x6 | x6 | x6 | x6 | x3[K:treble] x3 | x6 | x6 | x6 | x6 | x6 | %17
 x6 | x6 | x6 | x6 | x6 | x6 | x6 | x6 | x6 | x6 | x6 | x6 | x6 | x6 | x6 | x6 | x6 | x6 | x6 | %36
 x6 | x6 | x6 | x6 | x6 | x6 | x6 | x6 | x6 | x6 | x6 | x6 | x6 | x6 | x6 | x6 | x6 | x6 | x6 | %55
 x6 | x6 | x6 | z3[K:bass] F,3- | F,3[K:treble] z3 | x6 | x6 | z3 F,3- | F,3 z3 | x6 | x6 | x6 | %67
 x6 | x6 | x6 | x6 | x6 | x6 | x6 | x6 | x6 | x6 | x6 | x6 | x6 | x6 | x6 | x6 | x6 | x6 | x6 | %86
 x6 | x6 | x6 | z f'<.A, z3 | x6 | x6 | x6 | x6 | x6 | x6 | x6 | x6 | x6 | x6 | x6 | x6 | %102
[M:9/8] x9 | x9 |[M:6/8] x6 |[M:9/8] x9 | x9 |] %107

